svg/department.svg

<svg width="24" height="24" viewBox="0 0 24 24" xmlns="http://www.w3.org/2000/svg">
<path d="M16.4226 3.33975C16.7799 3.33975 17.11 3.53035 17.2887 3.83975L21.7113 11.5C21.89 11.8094 21.89 12.1906 21.7113 12.5L17.2887 20.1603C17.11 20.4697 16.7799 20.6603 16.4227 20.6603H7.57735C7.22009 20.6603 6.88996 20.4697 6.71133 20.1603L2.28868 12.5C2.11004 12.1906 2.11004 11.8094 2.28868 11.5L6.71132 3.83975C6.88996 3.53035 7.22008 3.33975 7.57735 3.33975L16.4226 3.33975Z"/>
</svg>

<svg width="24" height="24" viewBox="0 0 24 24" xmlns="http://www.w3.org/2000/svg"><path d="M16.423 3.34a1 1 0 0 1 .866.5l4.422 7.66a1 1 0 0 1 0 1l-4.422 7.66a1 1 0 0 1-.866.5H7.577a1 1 0 0 1-.866-.5L2.29 12.5a1 1 0 0 1 0-1L6.71 3.84a1 1 0 0 1 .866-.5h8.846z"/></svg>
